flags/rw.svg

<svg width="512" height="512" viewBox="0 0 512 512" fill="none" xmlns="http://www.w3.org/2000/svg">
<path d="M0 384L256 320L512 384V512H0V384Z" fill="var(--flag-palette-dark-green, #496e2d)"/>
<path d="M0 256L256 192L512 256V384H0V256Z" fill="var(--flag-palette-yellow, #ffda44)"/>
<path d="M0 128L256 64L512 128V256H0V128Z" fill="var(--flag-palette-light-blue, #338af3)"/>
<rect width="512" height="128" fill="var(--flag-palette-light-blue, #338af3)"/>
<path fill-rule="evenodd" clip-rule="evenodd" d="M384 56L395.176 86.2597C391.612 85.3076 387.865 84.8 384 84.8C380.135 84.8 376.388 85.3076 372.824 86.2597L384 56ZM414.547 97.453C409.266 92.1717 402.623 88.2514 395.191 86.2636L420 65.6462L414.547 97.453ZM414.547 97.453L446.354 92L425.736 116.809C423.749 109.377 419.828 102.734 414.547 97.453ZM427.2 128C427.2 124.135 426.692 120.388 425.74 116.824L456 128L425.74 139.176C426.692 135.612 427.2 131.865 427.2 128ZM414.547 158.547C419.828 153.266 423.749 146.623 425.736 139.191L446.354 164L414.547 158.547ZM414.547 158.547L420 190.354L395.191 169.736C402.623 167.749 409.266 163.828 414.547 158.547ZM384 171.2C387.865 171.2 391.612 170.692 395.176 169.74L384 200L372.824 169.74C376.388 170.692 380.135 171.2 384 171.2ZM353.453 158.547C358.734 163.828 365.377 167.749 372.809 169.736L348 190.354L353.453 158.547ZM342.264 139.191C344.251 146.623 348.172 153.266 353.453 158.547L321.646 164L342.264 139.191ZM340.8 128C340.8 131.865 341.308 135.612 342.26 139.176L312 128L342.26 116.824C341.308 120.388 340.8 124.135 340.8 128ZM353.453 97.453C348.172 102.734 344.251 109.377 342.264 116.809L321.646 92L353.453 97.453ZM372.809 86.2636C365.377 88.2514 358.734 92.1717 353.453 97.453L348 65.6462L372.809 86.2636ZM384 164C403.882 164 420 147.882 420 128C420 108.118 403.882 92 384 92C364.118 92 348 108.118 348 128C348 147.882 364.118 164 384 164Z" fill="var(--flag-palette-yellow, #ffda44)"/>
</svg>

<svg xmlns="http://www.w3.org/2000/svg" width="512" height="512" fill="none"><path fill="var(--flag-palette-dark-green, #496e2d)" d="m0 384 256-64 256 64v128H0z"/><path fill="var(--flag-palette-yellow, #ffda44)" d="m0 256 256-64 256 64v128H0z"/><path fill="var(--flag-palette-light-blue, #338af3)" d="m0 128 256-64 256 64v128H0z"/><path fill="var(--flag-palette-light-blue, #338af3)" d="M0 0h512v128H0z"/><path fill="var(--flag-palette-yellow, #ffda44)" fill-rule="evenodd" d="m384 56 11.2 30.3a43 43 0 0 0-22.4 0zm30.5 41.5q-8-8-19.3-11.2L420 65.6zm0 0 31.9-5.5-20.7 24.8q-3.1-11.2-11.2-19.3m12.7 30.5q0-5.8-1.5-11.2L456 128l-30.3 11.2q1.5-5.4 1.5-11.2m-12.7 30.5a43 43 0 0 0 11.2-19.3l20.7 24.8zm0 0 5.5 31.9-24.8-20.7q11.2-3.1 19.3-11.2M384 171.2q5.8 0 11.2-1.5L384 200l-11.2-30.3q5.4 1.5 11.2 1.5m-30.5-12.7q8 8 19.3 11.2L348 190.4zm-11.2-19.3q3.1 11.2 11.2 19.3l-31.9 5.5zm-1.5-11.2q0 5.8 1.5 11.2L312 128l30.3-11.2q-1.5 5.4-1.5 11.2m12.7-30.5a43 43 0 0 0-11.2 19.3L321.6 92zm19.3-11.2q-11.2 3.1-19.3 11.2L348 65.6zM384 164a36 36 0 1 0 0-72 36 36 0 0 0 0 72" clip-rule="evenodd"/></svg>
